X:1
T:Title
%%score { ( 1 3 ) | ( 2 4 5 ) }
L:1/8
Q:1/4=88
M:4/4
K:Eb
V:1 treble nm="Grand Piano"
V:3 treble 
V:2 bass 
V:4 bass 
V:5 bass 
V:1
 G2 E2 EFG[_Gc] | B2 z2 z4 | [Ee]3 [Ge] [Fd]2 [Ec]2 | c4 z4 | [EB]2 [EB]2 [=E_d]3 [Ec] | %5
w: Caryl~Florio * * * * *|||||
 [_D=EB]2 [CFA]2 [C=DA]2 [B,_EG]2 | [CF]2 [B,=EG]2 [A,FA]2 [_Ec]2 | [Dc]3 [DF] [DF]4 | B4 z4 | %9
w: ||||
 Bcde [Ae]2 [Ad]2 | [Gg]3 [Ge] [Gc]2 [GB]2 | [GB]3 [Gc] A2 AA | f6 z2 | %13
w: ||||
 [=B,DA]2 [_B,EG]2 z2 [B,_D]2 | [A,C][_DEB][CEA][B,CG] [A,=DF]2 [A,DG]2 | [G,E]6 z2 |] %16
w: |||
V:2
 [E,B,E]2 [E,G,]2 [E,G,][E,A,E][E,B,E][E,=A,] | z2 A2 E,2 D,D, | [C,C]3 [C,B,] [F,=A,]2 [F,A,]2 | %3
 [B,,A,]8 | z4 G,4 | B,,2 B,,2 B,,2 B,,2 | A,,2 G,,2 F,,2 [F,A,]2 | [B,,A,]3 [B,,A,] [B,,A,]4 | %8
 z2 [B,,A,][B,,A,] [C,A,]2 [D,A,]2 | [E,G,E]2 [E,B,]2 [F,=B,]2 [F,B,]2 | %10
 [E,C]3 [E,C] [E,C]2 [E,C]2 | [E,C]3 [E,C] [F,CF]2 z2 | %12
 z2 [B,,A,][B,,A,] [B,,A,][B,,A,][C,A,][D,A,] | z4 e4- | e z z2 z4 | E,6 z2 |] %16
V:3
 x8 | [B,F]4 [B,EG]2 [=B,FG][B,FG] | x8 | D4- [DB]4 | x8 | x8 | x8 | x8 | z2 D[DB] [EB]2 [FB]2 | %9
 z2 G2 z4 | x8 | x8 | z2 DD D[Dd][Ec][FB] | x8 | x8 | x8 |] %16
V:4
 x8 | D,4 z4 | x8 | x8 | [B,,G,]2 [B,,G,]2 B,,2 z G, | x8 | x8 | x8 | x8 | x8 | x8 | x8 | x8 | %13
 E,2 E,2 z2 G,,2 | A,,A,,A,,A,, B,,2 B,,2 | x8 |] %16
V:5
 x8 | x8 | x8 | x8 | z4 z2 B,,2 | x8 | x8 | x8 | x8 | x8 | x8 | x8 | x8 | x8 | x8 | x8 |] %16

